assets/img/icons/skills/figma-logo-fill-svgrepo-com.svg

<svg height="800" viewBox="0 0 256 256" width="800" xmlns="http://www.w3.org/2000/svg"><path d="m186.61523 94.00049a41.97934 41.97934 0 0 0 -24.61523-75.99949h-68a41.97934 41.97934 0 0 0 -24.61523 75.99949 41.93894 41.93894 0 0 0 .00048 67.99939 41.9892 41.9892 0 1 0 66.61475 33.99963v-35.05151a41.97356 41.97356 0 1 0 50.61523-66.94751zm1.38477-33.99949a26.02916 26.02916 0 0 1 -25.98047 25.99951l-.01953-.00051-.03857.001-25.96143-.001v-51.999h26a26.02947 26.02947 0 0 1 26 26zm-26 93.999a25.99952 25.99952 0 0 1 -.03857-51.999h.03857l.019-.00049a25.99976 25.99976 0 0 1 -.019 51.99949z"/></svg>

<?xml version="1.0" encoding="utf-8"?><!-- Uploaded to: SVG Repo, www.svgrepo.com, Generator: SVG Repo Mixer Tools -->
<svg fill="#000000" width="800px" height="800px" viewBox="0 0 256 256" id="Flat" xmlns="http://www.w3.org/2000/svg">
  <path d="M186.61523,94.00049A41.97934,41.97934,0,0,0,162,18.001H94A41.97934,41.97934,0,0,0,69.38477,94.00049a41.93894,41.93894,0,0,0,.00048,67.99939A41.9892,41.9892,0,1,0,136,195.99951V160.948a41.97356,41.97356,0,1,0,50.61523-66.94751ZM188,60.001a26.02916,26.02916,0,0,1-25.98047,25.99951L162,86l-.03857.001L136,86V34.001h26A26.02947,26.02947,0,0,1,188,60.001ZM162,154a25.99952,25.99952,0,0,1-.03857-51.999H162l.019-.00049A25.99976,25.99976,0,0,1,162,154Z"/>
</svg>
